X: 46
T:Muriel's 
C:Brian Pickell
M:3/4
L:1/8
Q:1/4=140
K:Bm
BA\
|FB B2 Bc|de dc BA|GA Bc df|g3f ed|ca a3c|Bg g3g|f3e df|ed cB AG|
|FB B2 Bc|de dc BA|GA Bc df|g3f ed|ca a3c|Bg g3a|b3f dc|B4 A2||
f2 fe dc|B2 AG FE|D2 d2 c2|B3A AG|FB Bc d2|GB Bc de|f2 fe df|e4 de|
f2 fe dc|B2 AG FE|D2 d2 c2|B3A AG|FB Bc d2|GB Bc de|f2 fe dc|d4:|
